X: 1027
T: The Dancing Horse.
%R: jig
B: Henry Playford "Apollo's Banquet", London 1687 (5th Edition)
F: https://archive.org/details/apollosbanquetco01rugg
Z: 2017 John Chambers <jc:trillian.mit.edu>
M: 6/4
L: 1/8
K: C
% - - - - - - - - - -
|:\
c4c2 c3de2 | a2g4 e6 |\
C4C2 C3DE2 | D2B,4 A,4G,2 |\
e3dc2 B3A^G2 | A3b^g2 a2(AB)(cd) |\
e3dc2 B3A^G2 | A6 a6 :|
|:\
g4g2 g3fg2 | a2g4 e6 |\
f3ed2 ^c3B^c2 | d2d2e2 f6 |\
e2efg2 c2cde2 | G2ABc2 E2EFG2 |\
A2F4 d2E4 | D6 C6 |]
% - - - - - - - - - -

%%sep 1 1 500
%%sep 1 1 500

